X:086
T: Banks and Braes of Bonny Doon
N: O'Farrell's Pocket Companion v.1 (Sky ed. p.20)
M: 6/8
L: 1/8
Q: 120
K: A
E/F/|A3 B3|cec BAB|cBA A<FE|EFA B3|
A2A BAB|cec BAB| cBA AFE|EFA A2 :|
c/d/|e2f ecA|e2f ecA|ecA ecA|fec B3|
A2A BAB|cec BAB| cBA AFE|EFA A2 :|
